X:308
T: Qiongren douba shenfanle
N: C1805
O: China, Gansu Kangle
S: I, 109]
N: Han Hui
R: Shange, Huar, Lianhuashanling]
M: 3/4
L: 1/8
K: Eb
F6B2 | e2f2f2f2 | e2c2e2c2 | c2f2c2e2 | c2B2F4
F6e2 | e2f2ecB2 | f2ececB2 | e2f2c2e2 | f2cBF4
F6ec | e2f2f2e2 | f2c2B2B2 | e2f2c2e2 | e2B2F4
F8 | e2e2c2 | c2B2B2 | F6

